Catalina-light/apps/scalable/mkvinfo.svg

<?xml version="1.0" encoding="UTF-8" standalone="no"?>
<!-- Created with Inkscape (http://www.inkscape.org/) -->

<svg
   xmlns:osb="http://www.openswatchbook.org/uri/2009/osb"
   xmlns:dc="http://purl.org/dc/elements/1.1/"
   xmlns:cc="http://creativecommons.org/ns#"
   xmlns:rdf="http://www.w3.org/1999/02/22-rdf-syntax-ns#"
   xmlns:svg="http://www.w3.org/2000/svg"
   xmlns="http://www.w3.org/2000/svg"
   xmlns:xlink="http://www.w3.org/1999/xlink"
   xmlns:sodipodi="http://sodipodi.sourceforge.net/DTD/sodipodi-0.dtd"
   xmlns:inkscape="http://www.inkscape.org/namespaces/inkscape"
   width="128"
   height="128"
   viewBox="0 0 33.866666 33.866668"
   version="1.1"
   id="svg8"
   inkscape:version="0.92.1 r15371"
   sodipodi:docname="mkvinfo.svg">
  <defs
     id="defs2">
    <linearGradient
       id="linearGradient1186"
       inkscape:collect="always">
      <stop
         id="stop1182"
         offset="0"
         style="stop-color:#d75e2b;stop-opacity:1" />
      <stop
         style="stop-color:#c74ce2;stop-opacity:1"
         offset="0.31248382"
         id="stop1190" />
      <stop
         id="stop4565"
         offset="0.44736263"
         style="stop-color:#a44ae7;stop-opacity:1;" />
      <stop
         id="stop4563"
         offset="0.67855918"
         style="stop-color:#8248ed;stop-opacity:1;" />
      <stop
         id="stop1184"
         offset="1"
         style="stop-color:#3d45f8;stop-opacity:1" />
    </linearGradient>
    <linearGradient
       inkscape:collect="always"
       id="linearGradient1012">
      <stop
         style="stop-color:#eaeaea;stop-opacity:1"
         offset="0"
         id="stop1008" />
      <stop
         style="stop-color:#fbfbfb;stop-opacity:1"
         offset="1"
         id="stop1010" />
    </linearGradient>
    <linearGradient
       id="linearGradient3361"
       inkscape:collect="always">
      <stop
         id="stop3363"
         offset="0"
         style="stop-color:#0068e0;stop-opacity:1;" />
      <stop
         id="stop3365"
         offset="1"
         style="stop-color:#00acf4;stop-opacity:1" />
    </linearGradient>
    <linearGradient
       xlink:href="#linearGradient3361"
       x1="71.204002"
       y1="15.369"
       gradientTransform="matrix(1.5564685,0,0,1.58743,-88.730662,-20.236087)"
       x2="71.204002"
       gradientUnits="userSpaceOnUse"
       y2="40.495998"
       id="linearGradient3026">
      <stop
         offset="0"
         stop-color="#fff"
         id="stop4808-4" />
      <stop
         offset=".42448"
         stop-opacity=".23529"
         stop-color="#fff"
         id="stop4810-0" />
      <stop
         offset=".82090"
         stop-opacity=".15686"
         stop-color="#fff"
         id="stop4812-8" />
      <stop
         offset="1"
         stop-opacity=".39216"
         stop-color="#fff"
         id="stop4814-0" />
    </linearGradient>
    <radialGradient
       r="20"
       gradientTransform="matrix(-3.4973e-8,1.8855,-1.7764,-5.4723e-8,39.14,-7.9932)"
       cx="15.026"
       cy="8.6258001"
       gradientUnits="userSpaceOnUse"
       fy="8.5088997"
       fx="4.4590001"
       id="radialGradient3029">
      <stop
         offset="0"
         stop-color="#c24251"
         id="stop4170" />
      <stop
         offset=".26238"
         stop-color="#c24251"
         id="stop4172" />
      <stop
         offset=".66094"
         stop-color="#a63643"
         id="stop4174" />
      <stop
         offset="1"
         stop-color="#a63643"
         id="stop4176" />
    </radialGradient>
    <radialGradient
       r="20.396999"
       gradientTransform="matrix(0,2.835678,-3.67007,0,38.250987,-64.305184)"
       cx="23.896"
       cy="3.99"
       gradientUnits="userSpaceOnUse"
       id="radialGradient3032">
      <stop
         offset="0"
         stop-color="#fff"
         id="stop3244-9-33-7-0-9" />
      <stop
         offset=".26238"
         stop-color="#ddd"
         id="stop3246-3-5-0-8-5" />
      <stop
         offset=".66094"
         stop-color="#abacae"
         id="stop3248-1-7-8-8-1" />
      <stop
         offset="1"
         stop-color="#89898b"
         id="stop3250-9-3-0-5-1" />
    </radialGradient>
    <radialGradient
       r="62.769001"
       gradientTransform="matrix(0.27083,0,0,0.087623,-2.8550999,26.187422)"
       cx="99.156998"
       cy="186.17"
       gradientUnits="userSpaceOnUse"
       id="radialGradient3035">
      <stop
         offset="0"
         stop-color="#3d3d3d"
         id="stop3822-2-6-3" />
      <stop
         offset=".5"
         stop-opacity=".49804"
         stop-color="#686868"
         id="stop3864-8-7-7" />
      <stop
         offset="1"
         stop-opacity="0"
         stop-color="#686868"
         id="stop3824-1-2-5" />
    </radialGradient>
    <linearGradient
       x1="22.759001"
       y1="13.035"
       gradientTransform="matrix(1,0,0,1.0521,0,-0.90547)"
       x2="23.077999"
       gradientUnits="userSpaceOnUse"
       y2="25.611"
       id="linearGradient4433">
      <stop
         offset="0"
         stop-color="#fff"
         id="stop6305-1-0-2" />
      <stop
         offset="1"
         stop-opacity="0"
         stop-color="#fff"
         id="stop6307-5-0-6" />
    </linearGradient>
    <linearGradient
       id="linearGradient4829">
      <stop
         id="stop4831"
         offset="0"
         style="stop-color:#f4fbfc;stop-opacity:1;" />
      <stop
         id="stop4833"
         offset="1"
         style="stop-color:#d6d6d6;stop-opacity:1;" />
    </linearGradient>
    <radialGradient
       gradientUnits="userSpaceOnUse"
       r="127.0051"
       cy="186.51421"
       cx="224.50391"
       id="SVGID_4_">
      <stop
         id="stop27"
         style="stop-color:#FFFFFF"
         offset="0" />
      <stop
         id="stop29"
         style="stop-color:#FDFEFF"
         offset="0.3984" />
      <stop
         id="stop31"
         style="stop-color:#F5FAFF"
         offset="0.6131" />
      <stop
         id="stop33"
         style="stop-color:#E7F3FF"
         offset="0.7841" />
      <stop
         id="stop35"
         style="stop-color:#D4EAFF"
         offset="0.9311" />
      <stop
         id="stop37"
         style="stop-color:#C8E4FF"
         offset="1" />
    </radialGradient>
    <radialGradient
       id="SVGID_5_"
       cx="324.69339"
       cy="286.66409"
       r="26.769501"
       gradientUnits="userSpaceOnUse">
      <stop
         offset="0"
         style="stop-color:#FFFFFF"
         id="stop50" />
      <stop
         offset="0.3984"
         style="stop-color:#FDFEFF"
         id="stop52" />
      <stop
         offset="0.6131"
         style="stop-color:#F5FAFF"
         id="stop54" />
      <stop
         offset="0.7841"
         style="stop-color:#E7F3FF"
         id="stop56" />
      <stop
         offset="0.9311"
         style="stop-color:#D4EAFF"
         id="stop58" />
      <stop
         offset="1"
         style="stop-color:#C8E4FF"
         id="stop60" />
    </radialGradient>
    <radialGradient
       id="SVGID_6_"
       cx="325"
       cy="392.77249"
       r="46.444901"
       gradientUnits="userSpaceOnUse">
      <stop
         offset="0"
         style="stop-color:#FFFFFF"
         id="stop73" />
      <stop
         offset="0.3984"
         style="stop-color:#FDFEFF"
         id="stop75" />
      <stop
         offset="0.6131"
         style="stop-color:#F5FAFF"
         id="stop77" />
      <stop
         offset="0.7841"
         style="stop-color:#E7F3FF"
         id="stop79" />
      <stop
         offset="0.9311"
         style="stop-color:#D4EAFF"
         id="stop81" />
      <stop
         offset="1"
         style="stop-color:#C8E4FF"
         id="stop83" />
    </radialGradient>
    <clipPath
       id="clipPath-349538100">
      <g
         transform="translate(0,-1004.4)"
         id="g17">
        <path
           transform="matrix(15.333,0,0,11.5,415,878.86)"
           d="m -24,13 c 0,1.105 -0.672,2 -1.5,2 -0.828,0 -1.5,-0.895 -1.5,-2 0,-1.105 0.672,-2 1.5,-2 0.828,0 1.5,0.895 1.5,2 z"
           id="path19"
           inkscape:connector-curvature="0"
           style="fill:#1890d0" />
      </g>
    </clipPath>
    <clipPath
       id="clipPath3914">
      <g
         transform="translate(0,-1004.4)"
         id="g3912">
        <path
           transform="matrix(15.333,0,0,11.5,415,878.86)"
           d="m -24,13 c 0,1.105 -0.672,2 -1.5,2 -0.828,0 -1.5,-0.895 -1.5,-2 0,-1.105 0.672,-2 1.5,-2 0.828,0 1.5,0.895 1.5,2 z"
           id="path3910"
           inkscape:connector-curvature="0"
           style="fill:#1890d0" />
      </g>
    </clipPath>
    <clipPath
       id="clipPath3920">
      <g
         transform="translate(0,-1004.4)"
         id="g3918">
        <path
           transform="matrix(15.333,0,0,11.5,415,878.86)"
           d="m -24,13 c 0,1.105 -0.672,2 -1.5,2 -0.828,0 -1.5,-0.895 -1.5,-2 0,-1.105 0.672,-2 1.5,-2 0.828,0 1.5,0.895 1.5,2 z"
           id="path3916"
           inkscape:connector-curvature="0"
           style="fill:#1890d0" />
      </g>
    </clipPath>
    <linearGradient
       inkscape:collect="always"
       xlink:href="#linearGradient1186"
       id="linearGradient1014"
       x1="174.79448"
       y1="250.8136"
       x2="280.09866"
       y2="354.67914"
       gradientUnits="userSpaceOnUse"
       gradientTransform="matrix(0.24529405,0,0,0.24529405,-82.007187,204.88782)" />
    <linearGradient
       inkscape:collect="always"
       xlink:href="#linearGradient1012"
       id="linearGradient1029"
       gradientUnits="userSpaceOnUse"
       x1="238.13715"
       y1="362.08014"
       x2="238.13715"
       y2="278.42477"
       gradientTransform="matrix(0.24238524,-0.03766387,0.03766387,0.24238524,-49.575045,215.05002)" />
    <linearGradient
       osb:paint="solid"
       id="linearGradient6987">
      <stop
         id="stop6985"
         offset="0"
         style="stop-color:#77d2fb;stop-opacity:1;" />
    </linearGradient>
  </defs>
  <sodipodi:namedview
     id="base"
     pagecolor="#ffffff"
     bordercolor="#666666"
     borderopacity="1.0"
     inkscape:pageopacity="0.0"
     inkscape:pageshadow="2"
     inkscape:zoom="1.2130109"
     inkscape:cx="51.949656"
     inkscape:cy="84.527419"
     inkscape:document-units="mm"
     inkscape:current-layer="layer1"
     showgrid="false"
     units="px"
     inkscape:window-width="1920"
     inkscape:window-height="1025"
     inkscape:window-x="0"
     inkscape:window-y="29"
     inkscape:window-maximized="1"
     showguides="false" />
  <metadata
     id="metadata5">
    <rdf:RDF>
      <cc:Work
         rdf:about="">
        <dc:format>image/svg+xml</dc:format>
        <dc:type
           rdf:resource="http://purl.org/dc/dcmitype/StillImage" />
        <dc:title></dc:title>
      </cc:Work>
    </rdf:RDF>
  </metadata>
  <g
     inkscape:label="Capa 1"
     inkscape:groupmode="layer"
     id="layer1"
     transform="translate(0,-263.13332)">
    <rect
       style="opacity:1;fill:url(#linearGradient1014);fill-opacity:1;stroke:none;stroke-width:0.36794108;stroke-linecap:round;stroke-linejoin:round;stroke-miterlimit:4;stroke-dasharray:none;stroke-dashoffset:0;stroke-opacity:0.14828898;paint-order:fill markers stroke"
       id="rect826"
       width="25.830492"
       height="29.56739"
       x="-39.131195"
       y="264.366"
       rx="1.4423118"
       ry="1.4423118"
       transform="rotate(-8.8324668)" />
    <path
       inkscape:connector-curvature="0"
       style="opacity:1;fill:#ffffff;fill-opacity:0.23954372;stroke:none;stroke-width:0.36794105;stroke-linecap:round;stroke-linejoin:round;stroke-miterlimit:4;stroke-dasharray:none;stroke-dashoffset:0;stroke-opacity:0.14828898;paint-order:fill markers stroke"
       d="m 3.3503487,267.01802 c -0.7895653,0.12269 -1.3263988,0.85705 -1.2037095,1.64662 l 0.092529,0.59546 c -0.1226893,-0.78956 0.4141443,-1.52393 1.2037096,-1.64661 l 22.6737212,-3.52324 c 0.789569,-0.12269 1.524052,0.41413 1.646741,1.20369 l -0.09253,-0.59547 c -0.12269,-0.78956 -0.857173,-1.32638 -1.646742,-1.20369 z"
       id="rect836" />
    <path
       sodipodi:nodetypes="csssscc"
       inkscape:connector-curvature="0"
       id="path1027"
       d="m 30.350438,281.94344 1.364511,8.78129 c 0.122689,0.78956 -0.414182,1.52398 -1.203747,1.64667 l -22.6737652,3.52324 c -0.7895675,0.12269 -1.5239799,-0.41418 -1.6466692,-1.20375 L 4.8262564,285.9096 Z"
       style="opacity:1;fill:#000000;fill-opacity:0.14068442;stroke:none;stroke-width:0.36794108;stroke-linecap:round;stroke-linejoin:round;stroke-miterlimit:4;stroke-dasharray:none;stroke-dashoffset:0;stroke-opacity:0.14828898;paint-order:fill markers stroke" />
    <path
       style="opacity:1;fill:url(#linearGradient1029);fill-opacity:1;stroke:none;stroke-width:0.36794108;stroke-linecap:round;stroke-linejoin:round;stroke-miterlimit:4;stroke-dasharray:none;stroke-dashoffset:0;stroke-opacity:0.14828898;paint-order:fill markers stroke"
       d="m 30.403287,282.28355 1.364511,8.78129 c 0.122689,0.78956 -0.414182,1.52398 -1.203748,1.64666 L 7.8902856,296.23475 C 7.1007181,296.35744 6.3663057,295.82056 6.2436164,295.031 l -1.3645112,-8.78129 z"
       id="rect1024"
       inkscape:connector-curvature="0"
       sodipodi:nodetypes="csssscc" />
    <path
       id="path843"
       d="m 7.8902953,296.23474 c -0.7895651,0.12269 -1.5239271,-0.41414 -1.6466164,-1.20371 l -0.092528,-0.59546 c 0.1226893,0.78956 0.8570509,1.3264 1.6466159,1.20371 L 30.47149,292.11604 c 0.789568,-0.12269 1.326524,-0.85707 1.203835,-1.64663 l 0.09253,0.59546 c 0.122689,0.78957 -0.414267,1.52395 -1.203834,1.64664 z"
       style="opacity:1;fill:#000000;fill-opacity:0.06844106;stroke:none;stroke-width:0.36794108;stroke-linecap:round;stroke-linejoin:round;stroke-miterlimit:4;stroke-dasharray:none;stroke-dashoffset:0;stroke-opacity:0.14828898;paint-order:fill markers stroke"
       inkscape:connector-curvature="0" />
    <path
       style="opacity:1;fill:#4d4d4d;fill-opacity:1;stroke:none;stroke-width:0.36794108;stroke-linecap:round;stroke-linejoin:round;stroke-miterlimit:4;stroke-dasharray:none;stroke-dashoffset:0;stroke-opacity:0.14828898;paint-order:fill markers stroke"
       d="m 15.701353,287.20779 0.838345,5.39516 4.253264,-3.42356 z m -5.336197,2.04413 -3.0148951,2.42681 3.6091491,1.39751 -0.159813,-1.02848 1.94133,0.75165 -0.594254,-3.82432 -1.621704,1.30531 z m 13.413793,-2.08435 0.594254,3.82432 1.621704,-1.30531 0.159813,1.02848 3.014895,-2.42681 -3.609149,-1.3975 0.159813,1.02847 z"
       id="path845"
       inkscape:connector-curvature="0" />
    <path
       inkscape:connector-curvature="0"
       style="opacity:1;fill:#ffffff;fill-opacity:0.05323193;stroke:none;stroke-width:0.36794105;stroke-linecap:round;stroke-linejoin:round;stroke-miterlimit:4;stroke-dasharray:none;stroke-dashoffset:0;stroke-opacity:0.14828898;paint-order:fill markers stroke"
       d="m 4.8791563,286.24971 0.035228,0.22671 25.5241727,-3.96616 -0.03523,-0.22671 z"
       id="path1031" />
    <path
       sodipodi:nodetypes="cccc"
       inkscape:connector-curvature="0"
       id="path1147"
       d="m 15.701353,287.20779 0.838345,5.39516 4.253264,-3.42356 z"
       style="opacity:1;fill:#ca4cf6;fill-opacity:1;stroke:none;stroke-width:0.36794108;stroke-linecap:round;stroke-linejoin:round;stroke-miterlimit:4;stroke-dasharray:none;stroke-dashoffset:0;stroke-opacity:0.14828898;paint-order:fill markers stroke" />
    <path
       style="opacity:1;fill:#f9f9f9;fill-opacity:1;stroke:none;stroke-width:3.10952258;stroke-linecap:round;stroke-linejoin:round;stroke-miterlimit:4;stroke-dasharray:none;stroke-dashoffset:0;stroke-opacity:0.01136367;paint-order:fill markers stroke"
       d="M 58.791016 19.865234 C 57.668337 19.865234 56.818902 20.771268 56.763672 21.892578 L 56.597656 25.244141 A 21.821666 21.821666 0 0 0 51.978516 27.164062 L 49.539062 24.955078 C 48.707113 24.201251 47.46768 24.161188 46.673828 24.955078 L 41.232422 30.396484 C 40.438574 31.190336 40.438566 32.46982 41.232422 33.263672 L 43.445312 35.658203 A 21.821666 21.821666 0 0 0 41.537109 40.322266 L 38.167969 40.488281 C 37.045276 40.488281 36.140625 41.392992 36.140625 42.515625 L 36.140625 50.212891 C 36.140625 51.335599 37.04614 52.194136 38.167969 52.238281 L 41.587891 52.373047 A 21.821666 21.821666 0 0 0 43.5 56.890625 L 41.232422 59.394531 C 40.438566 60.188421 40.438574 61.463961 41.232422 62.257812 L 46.673828 67.701172 C 47.46768 68.495024 48.714574 68.463125 49.539062 67.701172 L 52.044922 65.386719 A 21.821666 21.821666 0 0 0 56.597656 67.226562 L 56.763672 70.595703 C 56.763672 71.718374 57.668337 72.621094 58.791016 72.621094 L 66.488281 72.621094 C 67.61096 72.621094 68.471442 71.717505 68.515625 70.595703 L 68.650391 67.171875 A 21.821666 21.821666 0 0 0 73.082031 65.310547 L 75.669922 67.701172 C 76.494422 68.463125 77.741301 68.495024 78.535156 67.701172 L 83.978516 62.257812 C 84.772371 61.463961 84.772379 60.188421 83.978516 59.394531 L 81.617188 56.789062 A 21.821666 21.821666 0 0 0 83.447266 52.373047 L 86.871094 52.238281 C 87.993787 52.238281 88.896484 51.335599 88.896484 50.212891 L 88.896484 42.515625 C 88.896484 41.392992 87.992419 40.543651 86.871094 40.488281 L 83.519531 40.322266 A 21.821666 21.821666 0 0 0 81.646484 35.787109 L 83.978516 33.263672 C 84.772379 32.46982 84.772371 31.190336 83.978516 30.396484 L 78.535156 24.955078 C 77.741304 24.161188 76.50186 24.201251 75.669922 24.955078 L 73.177734 27.214844 A 21.821666 21.821666 0 0 0 68.650391 25.314453 L 68.515625 21.892578 C 68.515625 20.769907 67.61096 19.865234 66.488281 19.865234 L 58.791016 19.865234 z M 54.546875 37.697266 L 73.789062 45.148438 L 57.714844 58.087891 L 54.546875 37.697266 z "
       transform="matrix(0.26458333,0,0,0.26458333,0,263.13332)"
       id="rect4567" />
  </g>
</svg>

<svg width="128" height="128" version="1.1" viewBox="0 0 33.867 33.867" xmlns="http://www.w3.org/2000/svg">
<defs>
<linearGradient id="linearGradient1014" x1="174.79" x2="280.1" y1="250.81" y2="354.68" gradientTransform="matrix(.24529 0 0 .24529 -82.007 204.89)" gradientUnits="userSpaceOnUse"/>
<linearGradient id="linearGradient1029" x1="238.14" x2="238.14" y1="362.08" y2="278.42" gradientTransform="matrix(.24239 -.037664 .037664 .24239 -49.575 215.05)" gradientUnits="userSpaceOnUse"/>
</defs>
<g transform="translate(0 -263.13)">
<rect transform="rotate(-8.8325)" x="-39.131" y="264.37" width="25.83" height="29.567" rx="1.4423" ry="1.4423" fill="url(#linearGradient1014)" style="paint-order:fill markers stroke"/>
<path d="m3.3503 267.02c-0.78957 0.12269-1.3264 0.85705-1.2037 1.6466l0.092529 0.59546c-0.12269-0.78956 0.41414-1.5239 1.2037-1.6466l22.674-3.5232c0.78957-0.12269 1.5241 0.41413 1.6467 1.2037l-0.09253-0.59547c-0.12269-0.78956-0.85717-1.3264-1.6467-1.2037z" fill="#fff" fill-opacity=".23954" style="paint-order:fill markers stroke"/>
<path d="m30.35 281.94 1.3645 8.7813c0.12269 0.78956-0.41418 1.524-1.2037 1.6467l-22.674 3.5232c-0.78957 0.12269-1.524-0.41418-1.6467-1.2038l-1.3645-8.7813z" fill-opacity=".14068" style="paint-order:fill markers stroke"/>
<path d="m30.403 282.28 1.3645 8.7813c0.12269 0.78956-0.41418 1.524-1.2037 1.6467l-22.674 3.5232c-0.78957 0.12269-1.524-0.41419-1.6467-1.2038l-1.3645-8.7813z" fill="url(#linearGradient1029)" style="paint-order:fill markers stroke"/>
<path d="m7.8903 296.23c-0.78957 0.12269-1.5239-0.41414-1.6466-1.2037l-0.092528-0.59546c0.12269 0.78956 0.85705 1.3264 1.6466 1.2037l22.674-3.5232c0.78957-0.12269 1.3265-0.85707 1.2038-1.6466l0.09253 0.59546c0.12269 0.78957-0.41427 1.524-1.2038 1.6466z" fill-opacity=".068441" style="paint-order:fill markers stroke"/>
<path d="m15.701 287.21 0.83834 5.3952 4.2533-3.4236zm-5.3362 2.0441-3.0149 2.4268 3.6091 1.3975-0.15981-1.0285 1.9413 0.75165-0.59425-3.8243-1.6217 1.3053zm13.414-2.0844 0.59425 3.8243 1.6217-1.3053 0.15981 1.0285 3.0149-2.4268-3.6091-1.3975 0.15981 1.0285z" fill="#4d4d4d" style="paint-order:fill markers stroke"/>
<path d="m4.8792 286.25 0.035228 0.22671 25.524-3.9662-0.03523-0.22671z" fill="#fff" fill-opacity=".053232" style="paint-order:fill markers stroke"/>
<path d="m15.701 287.21 0.83834 5.3952 4.2533-3.4236z" fill="#ca4cf6" style="paint-order:fill markers stroke"/>
<path transform="matrix(.26458 0 0 .26458 0 263.13)" d="m58.791 19.865c-1.1227 0-1.9721 0.90603-2.0273 2.0273l-0.16602 3.3516a21.822 21.822 0 0 0-4.6191 1.9199l-2.4395-2.209c-0.83195-0.75383-2.0714-0.79389-2.8652 0l-5.4414 5.4414c-0.79385 0.79385-0.79386 2.0733 0 2.8672l2.2129 2.3945a21.822 21.822 0 0 0-1.9082 4.6641l-3.3691 0.16602c-1.1227 0-2.0273 0.90471-2.0273 2.0273v7.6973c0 1.1227 0.90552 1.9812 2.0273 2.0254l3.4199 0.13477a21.822 21.822 0 0 0 1.9121 4.5176l-2.2676 2.5039c-0.79386 0.79389-0.79385 2.0694 0 2.8633l5.4414 5.4434c0.79385 0.79385 2.0407 0.76195 2.8652 0l2.5059-2.3145a21.822 21.822 0 0 0 4.5527 1.8398l0.16602 3.3691c0 1.1227 0.90466 2.0254 2.0273 2.0254h7.6973c1.1227 0 1.9832-0.90359 2.0273-2.0254l0.13477-3.4238a21.822 21.822 0 0 0 4.4316-1.8613l2.5879 2.3906c0.8245 0.76195 2.0714 0.79385 2.8652 0l5.4434-5.4434c0.79386-0.79385 0.79386-2.0694 0-2.8633l-2.3613-2.6055a21.822 21.822 0 0 0 1.8301-4.416l3.4238-0.13477c1.1227 0 2.0254-0.90268 2.0254-2.0254v-7.6973c0-1.1226-0.90406-1.972-2.0254-2.0273l-3.3516-0.16602a21.822 21.822 0 0 0-1.873-4.5352l2.332-2.5234c0.79386-0.79385 0.79386-2.0733 0-2.8672l-5.4434-5.4414c-0.79385-0.79389-2.0333-0.75383-2.8652 0l-2.4922 2.2598a21.822 21.822 0 0 0-4.5273-1.9004l-0.13477-3.4219c0-1.1227-0.90466-2.0273-2.0273-2.0273h-7.6973zm-4.2441 17.832 19.242 7.4512-16.074 12.939-3.168-20.391z" fill="#f9f9f9" style="paint-order:fill markers stroke"/>
</g>
</svg>
